app/dist/common/images/tat-technologies.svg

<svg height="18" viewBox="0 0 18 18" width="18" xmlns="http://www.w3.org/2000/svg"><path d="m0 0h18v18h-18z" fill="#f0f3fa"/><path d="m3.01 8.45h-1.01l.2-.95h3.15l-.2.95h-1l-.58 2.55h-1.12zm6.17 0h-1.01l.2-.95h3.15l-.2.95h-1.01l-.57 2.55h-1.12zm-3.07 1.28h.7l-.11-1.03-.6 1.03zm.29-2.23h1.1l.57 3.5h-1.1l-.06-.5h-1.21l-.28.5h-1.14l2.11-3.5z" fill="#050505"/><path d="m10.25 10-.15 1h1.78c.7 0 1.22-.36 1.6-1z" fill="#0265a1"/><path d="m11.29 8.77-.16 1h2.04c.7 0 1.2-.36 1.58-1h-3.45z" fill="#0094c9"/><path d="m12.29 7.5-.16 1h2.28c.7 0 1.22-.36 1.59-1z" fill="#86d0e6"/></svg>

<!-- by TradingView --><svg xmlns="http://www.w3.org/2000/svg" width="18" height="18" viewBox="0 0 18 18"><path fill="#F0F3FA" d="M0 0h18v18H0z"/><path d="M3.01 8.45H2l.2-.95h3.15l-.2.95h-1L3.57 11H2.45l.56-2.55zM9.18 8.45H8.17l.2-.95h3.15l-.2.95h-1.01L9.74 11H8.62l.56-2.55zM6.11 9.73h.7L6.7 8.7 6.1 9.73zM6.4 7.5h1.1l.57 3.5h-1.1l-.06-.5H5.7l-.28.5H4.28l2.11-3.5z" fill="#050505"/><path d="M10.25 10l-.15 1h1.78c.7 0 1.22-.36 1.6-1h-3.23z" fill="#0265A1"/><path d="M11.29 8.77l-.16 1h2.04c.7 0 1.2-.36 1.58-1H11.3z" fill="#0094C9"/><path d="M12.29 7.5l-.16 1h2.28c.7 0 1.22-.36 1.59-1h-3.71z" fill="#86D0E6"/></svg>
